images/search.svg

<svg width="42" height="66" viewBox="0 0 42 66" fill="none" xmlns="http://www.w3.org/2000/svg">
<path d="M30.0257 40.05L26.3152 36.35C27.318 35.05 28.02 33.35 28.02 31.45C28.02 27.05 24.4098 23.45 19.9973 23.45C15.5848 23.45 11.9746 27.15 11.9746 31.55C11.9746 35.95 15.5848 39.55 19.9973 39.55C21.8024 39.55 23.5072 38.95 24.9112 37.85L28.6217 41.55L30.0257 40.05ZM19.9973 37.55C16.6879 37.55 13.9803 34.85 13.9803 31.55C13.9803 28.25 16.6879 25.55 19.9973 25.55C23.3067 25.55 26.0143 28.25 26.0143 31.55C26.0143 34.85 23.3067 37.55 19.9973 37.55Z" fill="black"/>
</svg>

<svg width="42" height="66" viewBox="0 0 42 66" fill="none" xmlns="http://www.w3.org/2000/svg"><path d="m30.03 40.05-3.71-3.7c1-1.3 1.7-3 1.7-4.9 0-4.4-3.61-8-8.02-8a8.12 8.12 0 0 0-8.03 8.1 8.04 8.04 0 0 0 12.94 6.3l3.71 3.7 1.4-1.5ZM20 37.55a6.03 6.03 0 0 1-6.02-6 6.03 6.03 0 0 1 12.03 0c0 3.3-2.7 6-6.01 6Z" fill="#000"/></svg>
